!!!OTL: ICH UND MEIN FLAESCHCHEN
!!!ARE: Europa, Mitteleuropa, Deutschland
!!!SCT: F0147
!!!YEM: Copyright 1995, estate of Helmut Schaffrath.
**kern
*ICvox
*Ivox
*M4/4
*k[f#c#g#]
*A:
=1
{4a
8.a
16a
4cc#
8.a
16cc#
=2
4ee
8.ee
16ee
4cc#
4a}
=3
{4b
8.b
16b
4b
8.a
16f#
=4
8e
8g#
8f#
8d#
2e}
=5
{4a
8.a
16a
4cc#
8.a
16cc#
=6
4ee
8.ee
16ee
4cc#
4a}
=7
{4b
8.b
16b
4b
8.a
16f#
=8
8e
8g#
8f#
8d#
2e}
=9
{8e
8r
8g#
8r
2b
=10
8g#
8a
8b
8cc#
2dd}
=11
{4cc#
8b
8a
4b
4e
=12
4cc#
8b
8a
4b
4e}
=13
{4a
8a
8a
8f#
8dd
8cc#
8b
=14
8a
8cc#
8b
8g#
4a
4r}
=15
{8e
8r
8g#
8r
2b
=16
8g#
8a
8b
8cc#
2dd}
=17
{4cc#
8b
8a
4b
4e
=18
4cc#
8b
8a
4b
4e}
=19
{4a
8a
8a
8f#
8dd
8cc#
8b
=20
8a
8cc#
8b
8g#
4a
4r}
==
!!!AGN: Trink - Lied
!!!ONB: ESAC (Essen Associative Code) Database: FINK
!!!AMT: simple quadruple
!!!AIN: vox
!!!EED: Helmut Schaffrath
!!!EEV: 1.0
*-
